X: 1
T: Galway Rambler, The
T: Finlay's Delight
M: 4/4
L: 1/8
K:G
G2 dG eGdG|GBdB AGEF|~G3A BABd|egdB AGEF|
G2 dG eGdG|GBdB AGEF|GFGA BABd|egdB A2 ef||
~g3b a2 ab|gabg agef|gfgb a2 ab|gedB A2 ef|
gabg gabg|gabg (3aba ga|bgab gede|gedB AGEF||
